!!!SOCIAL_FUNCTION:	ca'koramu's dance songs
!!!PDT:	1932
!!!OTL: No_98_Song_Concerning_the_Quail.krn
!!!REG: Southwest
!!!LANG: Non-Tone
!!!LING_GROUP: Yuman-Cochimi
**kern
*staff1
=1-
*clefF4
*k[f#]
*M2/4
4.G\
8G\
=2||
*M3/4
8A\L
[8A\J
4A\]
4A\
=3
2A\
4E\
=4||
*M2/4
4.G\
8G\
=5||
*M3/4
8G\L
[8G\J
4G\]
4E\
=6!|:
*M2/4
4.G\
8G\
=7||
*M3/4
8A\L
[8A\J
4A\]
4A\
=8
2A\
4G\
=9||
*M2/4
4.A\
8A\
=10||
*M3/4
8A\L
[8A\J
4A\]
4G\
=11||
*M2/4
4..A\
16A\
=12||
*M3/4
8B\L
[8B\J
4B\]
4A\
=13
2A\
4E\
=14||
*M2/4
4.G\
8G\
=15||
*M3/4
8G\L
8G\J
2r
=16||
*M2/4
4.G\
8G\
=17
*M3/4
8A\L
[8A\J
4A\]
4A\
=18
*M3/4
2A\
4E\
=19
*M2/4
4.G\
8G\
=20||
*M3/4
8G\L
8G\J
2r
=21||
*M2/4
4.G\
8A\
=22||
*M3/4
8A\L
[8A\J
4A\]
4A\
=23
2A\
4d\
=24
*M2/4
4.e\
8d\
=25
8d\L
8d\J
4B\
=26
4.A\
8A\
=27
*M3/4
8A\L
[8A\J
4A\]
4G\
=28||
*M2/4
4.A\
8A\
=29||
*M3/4
8B\L
[8B\J
4B\]
4B\
=30
2A\
4E\
=31
*M2/4
4.G\
8G\
=32
8G\L
8G\J
4r
==
*-
